build/category/PickupSolid.svg

<svg xmlns="http://www.w3.org/2000/svg" fill="none" viewBox="0 0 24 24" focusable="false"><path d="M0 0H24V24H0z"/><path fill="#74767B" fill-rule="evenodd" d="M5.97677 5.13429C6.34269 5.01232 6.73372 5.23399 6.81699 5.61062L9.16479 16.2303C9.60474 18.2203 11.5891 19.4645 13.572 18.9936L19.2168 17.6533C19.5661 17.5704 19.782 17.22 19.699 16.8707C19.6161 16.5215 19.2657 16.3056 18.9165 16.3885L13.2716 17.7288C11.995 18.0319 10.7174 17.2309 10.4341 15.9497L8.08634 5.32999C7.83654 4.20011 6.66346 3.53508 5.56567 3.901L4.38897 4.29324C4.0484 4.40676 3.86435 4.77486 3.97787 5.11543C4.09139 5.45599 4.4595 5.64004 4.80006 5.52652L5.97677 5.13429ZM10.7792 4.8927C10.0781 5.04762 9.63538 5.74153 9.7903 6.44259L10.6147 10.1732L17.3184 8.69175L17.5989 9.96113L10.8952 11.4425L11.7196 15.173C11.8745 15.8741 12.5684 16.3168 13.2695 16.1619L17.4345 15.2415C18.1355 15.0866 18.5782 14.3927 18.4233 13.6916L16.494 4.96117C16.3391 4.26012 15.6452 3.81739 14.9442 3.97231L10.7792 4.8927ZM9 19C9 19.8284 8.32843 20.5 7.5 20.5C6.67157 20.5 6 19.8284 6 19C6 18.1716 6.67157 17.5 7.5 17.5C8.32843 17.5 9 18.1716 9 19Z"/></svg>

<svg xmlns="http://www.w3.org/2000/svg" fill="none" viewBox="0 0 24 24" focusable="false"><path fill="#74767B" fill-rule="evenodd" d="M6.81 5.61a.648.648 0 0 0-.84-.48l-1.17.39a.65.65 0 1 1-.42-1.23l1.18-.39c1.1-.37 2.27.3 2.52 1.42l2.35 10.62a2.34 2.34 0 0 0 2.84 1.78l5.64-1.34c.35-.08.7.14.78.49.09.34-.13.7-.48.78l-5.64 1.34c-1.99.47-3.97-.77-4.41-2.76zm3.96-.72c-.7.15-1.14.85-.98 1.55l.82 3.73 6.7-1.48.28 1.27-6.7 1.48.82 3.73c.16.7.85 1.14 1.55.99l4.17-.92c.7-.16 1.14-.85.99-1.55l-1.93-8.73a1.3 1.3 0 0 0-1.55-.99zM9 19c0 .82-.68 1.5-1.5 1.5-.83 0-1.5-.68-1.5-1.5 0-.83.67-1.5 1.5-1.5.82 0 1.5.67 1.5 1.5"/></svg>
